tools/download-figma-icons/icons/outlined-medium/handshake.svg

<svg width="24" height="24" viewBox="0 0 24 24" fill="none" xmlns="http://www.w3.org/2000/svg">
<path fill-rule="evenodd" clip-rule="evenodd" d="M19.346 16.6026C19.1562 16.8344 18.8142 16.8681 18.5885 16.6859L13.2125 12.1859C12.8953 11.9189 12.4221 11.9624 12.1566 12.2797C11.8911 12.5969 11.9323 13.0702 12.2503 13.3357L16.4075 16.8156C16.4308 16.8404 16.445 16.8719 16.4728 16.8951C16.7053 17.0849 16.739 17.4284 16.55 17.6601C16.361 17.8926 16.0198 17.9279 15.7843 17.7366L14.6533 16.8179C14.6428 16.8089 14.6353 16.7984 14.6248 16.7901C14.6195 16.7856 14.6128 16.7849 14.6075 16.7804L11.7058 14.4254C11.3856 14.1637 10.9123 14.2132 10.6513 14.5349C10.3911 14.8567 10.4398 15.3292 10.7616 15.5894L13.6888 17.9661C13.7938 18.0569 13.8605 18.1806 13.874 18.3186C13.889 18.4619 13.8463 18.6036 13.754 18.7161C13.6625 18.8294 13.5328 18.8991 13.3888 18.9134C13.247 18.9299 13.1038 18.8856 12.989 18.7926L11.2926 17.4156C11.2768 17.4021 11.2618 17.3901 11.2461 17.3774L10.2831 16.5966C9.95983 16.3349 9.48883 16.3844 9.22858 16.7069C8.96759 17.0279 9.01709 17.5004 9.33808 17.7614L10.3251 18.5616C10.4233 18.6501 10.4848 18.7709 10.4983 18.9036C10.5133 19.0476 10.4713 19.1879 10.3806 19.3004C10.2883 19.4121 10.1586 19.4826 10.0146 19.4969C9.87058 19.5066 9.72883 19.4684 9.61933 19.3799L3.0899 13.9822L4.57788 8.02873L7.25836 7.57723L5.39237 10.0635C5.17788 10.3485 5.19438 10.7437 5.42987 11.0107C5.55062 11.1487 6.65386 12.3547 7.9551 12.4072C8.52059 12.4327 9.07184 12.2227 9.51733 11.7937L10.7953 10.515H13.1983L19.268 15.8369C19.499 16.0266 19.5342 16.3701 19.346 16.6026ZM11.9758 6.78228L19.4225 8.17126L20.8212 13.767L19.6325 14.163L13.9738 9.201C13.8365 9.08101 13.661 9.01501 13.4795 9.01501H10.4848C10.2853 9.01501 10.0948 9.09376 9.95458 9.23475L8.4666 10.7227C8.3256 10.8577 8.1771 10.905 8.01735 10.9087C7.67985 10.8967 7.29511 10.6597 6.99661 10.425L9.40634 7.21502L11.9758 6.78228ZM23.2497 13.5082H22.3017L20.3562 5.72326L23.5294 4.44527C23.9142 4.29077 24.1002 3.85353 23.9457 3.46953C23.7904 3.08479 23.3517 2.90179 22.9699 3.05404L19.1907 4.57577C18.8427 4.71527 18.6522 5.08952 18.743 5.45326L19.022 6.57L12.1198 5.28301C12.0328 5.26726 11.9436 5.26651 11.8581 5.28076L8.88359 5.78176C8.88134 5.78251 8.87984 5.78251 8.87834 5.78326L4.97463 6.441L5.22138 5.45326C5.31213 5.09102 5.12238 4.71677 4.77663 4.57652L1.03342 3.05479C0.647925 2.90029 0.21218 3.08329 0.0554314 3.46653C-0.100567 3.85053 0.0839311 4.28852 0.467927 4.44452L3.6089 5.72101L1.66192 13.5082H0.750674C0.335929 13.5082 0.000681914 13.8434 0.000681914 14.2582C0.000681914 14.6729 0.335929 15.0082 0.750674 15.0082H1.97916L8.66759 20.5386C9.03584 20.8394 9.48659 20.9999 9.95533 20.9999C10.0251 20.9999 10.0948 20.9961 10.1653 20.9894C10.7076 20.9339 11.1973 20.6714 11.5431 20.2476C11.6601 20.1036 11.7561 19.9476 11.8288 19.7819L12.0433 19.9559C12.4656 20.3016 12.9988 20.4584 13.5403 20.4059C14.0825 20.3504 14.5723 20.0871 14.9165 19.6649C15.0478 19.5044 15.143 19.3251 15.2188 19.1391C15.506 19.2824 15.8165 19.3581 16.1278 19.3581C16.7203 19.3581 17.309 19.1016 17.7118 18.6074C17.8445 18.4454 17.9383 18.2661 18.0132 18.0809C18.3005 18.2249 18.6117 18.3014 18.923 18.3014C19.5155 18.3014 20.1042 18.0449 20.5077 17.5506C21.0267 16.9124 21.0927 16.0559 20.7612 15.3674L21.8367 15.0082H23.2497C23.6644 15.0082 23.9997 14.6729 23.9997 14.2582C23.9997 13.8434 23.6644 13.5082 23.2497 13.5082Z" fill="black"/>
</svg>

<svg xmlns="http://www.w3.org/2000/svg" width="24" height="24" fill="none" viewBox="0 0 24 24"><path fill="currentColor" fill-rule="evenodd" d="M19.346 16.603a.544.544 0 0 1-.758.083l-5.376-4.5a.749.749 0 1 0-.962 1.15l4.157 3.48c.024.024.038.056.066.08a.545.545 0 0 1-.689.84l-1.13-.918q-.015-.016-.03-.028l-.017-.01-2.901-2.355a.749.749 0 1 0-.944 1.164l2.927 2.377a.533.533 0 0 1 .065.75.53.53 0 0 1-.365.197.54.54 0 0 1-.4-.12l-1.696-1.377-.047-.039-.963-.78a.75.75 0 0 0-.945 1.165l.987.8a.538.538 0 0 1-.31.935.56.56 0 0 1-.396-.117l-6.53-5.398 1.49-5.952 2.68-.452-1.866 2.486a.75.75 0 0 0 .038.948c.12.138 1.224 1.344 2.525 1.396.566.026 1.117-.184 1.562-.613l1.278-1.279h2.403l6.07 5.322c.231.19.266.533.078.766m-7.37-9.82 7.446 1.388 1.4 5.596-1.19.396-5.658-4.962a.75.75 0 0 0-.495-.186h-2.994c-.2 0-.39.079-.53.22l-1.488 1.488a.64.64 0 0 1-.45.186c-.337-.012-.722-.25-1.02-.484l2.41-3.21zm11.274 6.725h-.948l-1.946-7.785 3.173-1.278a.75.75 0 1 0-.56-1.391l-3.778 1.522a.75.75 0 0 0-.448.877l.279 1.117-6.902-1.287a.8.8 0 0 0-.262-.002l-2.974.5-.006.002-3.903.658.246-.988a.75.75 0 0 0-.444-.876L1.033 3.055a.75.75 0 1 0-.565 1.39l3.14 1.276-1.946 7.787H.75a.75.75 0 1 0 0 1.5h1.228l6.689 5.53a2.03 2.03 0 0 0 1.497.451 2.03 2.03 0 0 0 1.664-1.207l.214.174a2.037 2.037 0 0 0 2.874-.291c.13-.16.226-.34.302-.526.287.143.598.22.909.22.592 0 1.181-.257 1.584-.752a2 2 0 0 0 .301-.526c.287.144.599.22.91.22a2.04 2.04 0 0 0 1.838-2.934l1.076-.359h1.413a.75.75 0 1 0 0-1.5" clip-rule="evenodd"/></svg>
